client/resources/icons/tech/nest.svg

<svg width="34" height="34" viewBox="0 0 34 34" fill="none" xmlns="http://www.w3.org/2000/svg">
<g clip-path="url(#clip0)">
<path d="M20.0189 0.0665817C19.7738 0.0665817 19.5457 0.118998 19.3347 0.189832C19.7823 0.487332 20.0288 0.883998 20.1507 1.33167C20.1606 1.39258 20.1776 1.4365 20.1861 1.49742C20.1966 1.5497 20.2027 1.60277 20.2045 1.65608C20.2385 2.42817 20.0019 2.52592 19.8362 2.98208C19.5812 3.57 19.652 4.20183 19.958 4.71042C19.986 4.77862 20.0211 4.84367 20.0628 4.9045C19.7299 2.68317 21.5829 2.35025 21.9243 1.65608C21.9512 1.04975 21.4512 0.645998 21.0559 0.365498C20.7453 0.170323 20.3857 0.0671707 20.0189 0.0679984V0.0665817ZM22.8112 0.566665C22.7772 0.769248 22.8027 0.716832 22.7942 0.821665C22.7857 0.892498 22.7857 0.980332 22.7772 1.04975C22.7587 1.12058 22.7417 1.19142 22.7148 1.26083C22.6978 1.33167 22.6723 1.4025 22.644 1.47192L22.5491 1.67308C22.5207 1.7085 22.5052 1.74392 22.4782 1.77933L22.4258 1.85725C22.384 1.91737 22.3401 1.97596 22.2941 2.03292C22.2417 2.08675 22.1977 2.14767 22.1354 2.19158V2.20008C22.083 2.244 22.0306 2.29642 21.9682 2.34175C21.7841 2.482 21.5744 2.58683 21.3803 2.71858C21.3194 2.76108 21.2571 2.79792 21.2047 2.85033C21.1451 2.89225 21.0891 2.93917 21.0375 2.99058C20.9766 3.043 20.9327 3.09542 20.8802 3.15775C20.8363 3.21017 20.7839 3.27108 20.7485 3.33342C20.7044 3.39273 20.6633 3.4542 20.6252 3.51758C20.5898 3.58842 20.5643 3.64933 20.5289 3.71875C20.502 3.78958 20.4765 3.8505 20.4581 3.92133C20.4348 3.99368 20.4145 4.06694 20.3972 4.14092C20.3887 4.17633 20.3887 4.22025 20.3802 4.25425C20.3702 4.28967 20.3702 4.32508 20.3617 4.3605C20.3617 4.43133 20.3532 4.50925 20.3532 4.58008C20.3532 4.6325 20.3532 4.68492 20.3617 4.73733C20.3617 4.80817 20.3702 4.879 20.3887 4.95692C20.3972 5.02775 20.4142 5.09858 20.4312 5.16942C20.4595 5.23883 20.4765 5.30825 20.502 5.37908C20.5204 5.42158 20.5459 5.46692 20.5643 5.50233L18.5442 4.72033C18.2027 4.624 17.8684 4.53617 17.5256 4.45683L16.9731 4.32508C16.4461 4.22025 15.9106 4.14092 15.3751 4.0885C15.3567 4.0885 15.3482 4.08 15.3312 4.08C14.4263 3.98935 13.5152 3.9775 12.6083 4.04458C12.0728 4.08 11.5373 4.14942 11.0018 4.23725C10.6039 4.30582 10.2084 4.38803 9.81607 4.48375L9.42082 4.58858C9.29049 4.641 9.16582 4.70192 9.04399 4.75575L8.75357 4.8875C8.73657 4.896 8.71957 4.896 8.71107 4.9045C8.62182 4.94842 8.54391 4.98383 8.46457 5.02775C8.35051 5.07807 8.23893 5.13385 8.13024 5.19492C8.06932 5.22042 8.00841 5.25583 7.95457 5.28275C7.92942 5.29836 7.9034 5.31255 7.87666 5.32525C7.79732 5.37058 7.71799 5.4145 7.64716 5.45842C7.57486 5.49838 7.50486 5.54236 7.43749 5.59017C7.37516 5.63267 7.31424 5.66808 7.26182 5.712C7.25332 5.72192 7.24341 5.72192 7.23491 5.73042C7.18249 5.76583 7.12157 5.80975 7.06774 5.85367L7.05074 5.87067L6.91899 5.9755C6.90199 5.98542 6.88357 6.00242 6.86657 6.01092C6.82266 6.04633 6.77874 6.09025 6.73482 6.12425C6.72632 6.14267 6.70791 6.15258 6.69941 6.15967C6.64699 6.2135 6.59457 6.25742 6.54216 6.30983C6.53224 6.30983 6.53224 6.31833 6.52374 6.32683C6.46914 6.37455 6.41668 6.42466 6.36649 6.477C6.35657 6.4855 6.35657 6.494 6.34807 6.494C6.30196 6.53913 6.258 6.58641 6.21632 6.63567C6.19932 6.65267 6.17382 6.66967 6.15541 6.68667C6.10836 6.74232 6.05823 6.7953 6.00524 6.84533C5.99674 6.86233 5.97974 6.87225 5.97124 6.88783C5.90041 6.95867 5.83949 7.0295 5.76866 7.10033L5.74316 7.12583C5.60149 7.276 5.45274 7.42475 5.29407 7.5565C5.13682 7.69817 4.96966 7.8285 4.80249 7.94325C4.46685 8.183 4.10461 8.38313 3.72299 8.53967C3.53882 8.619 3.34474 8.68983 3.15207 8.75075C2.78374 8.83008 2.40549 8.97883 2.08108 9.00575C2.01024 9.00575 1.93233 9.02275 1.86149 9.03125L1.64191 9.08367L1.43083 9.163C1.35999 9.18992 1.29058 9.22533 1.22116 9.25933C1.15883 9.30325 1.08941 9.33867 1.02708 9.38258C0.96457 9.42782 0.905823 9.47804 0.851408 9.53275C0.790492 9.57525 0.728159 9.63758 0.675742 9.69C0.623325 9.75092 0.570909 9.80333 0.526992 9.86567C0.483075 9.9365 0.430659 9.99742 0.395242 10.0682C0.349098 10.1321 0.307895 10.1993 0.271992 10.2694C0.236575 10.3487 0.201159 10.4196 0.175659 10.4975C0.148742 10.5683 0.123242 10.6477 0.0963253 10.7256C0.0793253 10.7964 0.0609086 10.8672 0.0538253 10.9381C0.0538253 10.9452 0.0439086 10.9551 0.0439086 10.9636C0.0269086 11.0429 0.0269086 11.1477 0.0169919 11.2002C0.00849194 11.2625 -8.06e-06 11.3135 -8.06e-06 11.3758C-0.00163796 11.5286 0.0343658 11.6794 0.104825 11.815V11.8235C0.131742 11.8759 0.167159 11.9297 0.202575 11.9822C0.236575 12.0346 0.273409 12.087 0.315909 12.1394C0.359825 12.1833 0.412242 12.2372 0.466075 12.2811C0.517265 12.3324 0.572713 12.3793 0.631825 12.4213C0.842909 12.6055 0.895325 12.6664 1.16733 12.8067C1.21124 12.8336 1.25516 12.8506 1.30899 12.8775C1.31749 12.8775 1.32599 12.886 1.33449 12.886C1.33449 12.9044 1.33449 12.9129 1.34299 12.9299C1.3635 13.0747 1.40156 13.2165 1.45633 13.3521C1.48466 13.4045 1.50166 13.4569 1.52716 13.5093C1.53708 13.5277 1.54558 13.5447 1.55549 13.5532C1.58949 13.6241 1.62491 13.685 1.65891 13.7473L1.79066 13.9315C1.83458 13.9839 1.88841 14.0448 1.94083 14.0987C1.99324 14.1511 2.04566 14.195 2.10799 14.2474C2.10799 14.2474 2.11649 14.2559 2.12499 14.2559C2.17741 14.2998 2.22983 14.3437 2.28366 14.3792C2.34475 14.422 2.40918 14.4599 2.47633 14.4925C2.53724 14.5279 2.60808 14.5633 2.67749 14.5902C2.7341 14.6158 2.79289 14.6362 2.85316 14.6512C2.86307 14.6597 2.87158 14.6597 2.88858 14.6682C2.92399 14.6781 2.96791 14.6866 3.00191 14.6951C2.97641 15.1697 2.96791 15.6159 3.03874 15.7746C3.11666 15.9502 3.50341 15.4147 3.88874 14.7999C3.83774 15.4062 3.80232 16.1174 3.88874 16.3285C3.98649 16.5481 4.51207 15.8624 4.96966 15.1073C11.1959 13.668 16.8767 17.969 17.4732 24.0465C17.3598 23.0973 16.1911 22.5717 15.6556 22.7035C15.3921 23.3523 14.9444 24.1867 14.2247 24.7052C14.2857 24.1244 14.2602 23.5294 14.1369 22.9486C13.9403 23.7571 13.5683 24.5125 13.0475 25.1614C12.2145 25.2223 11.3801 24.8186 10.9409 24.2122C10.9055 24.1867 10.897 24.1343 10.8701 24.0989C10.8446 24.038 10.8177 23.9757 10.7992 23.9147C10.7738 23.8559 10.7561 23.794 10.7468 23.7306C10.7383 23.6682 10.7383 23.6073 10.7383 23.5365V23.4047C10.7488 23.3424 10.7635 23.2809 10.7822 23.2206C10.8007 23.1597 10.8177 23.0987 10.8446 23.0364C10.8786 22.9755 10.9055 22.9132 10.9494 22.8522C11.0982 22.4301 11.0982 22.0873 10.8262 21.8861C10.7733 21.8516 10.7174 21.8222 10.659 21.7982C10.625 21.7897 10.5811 21.7728 10.5457 21.7628L10.4748 21.7373C10.4147 21.7179 10.3531 21.7032 10.2907 21.6934C10.2308 21.6759 10.1688 21.6668 10.1065 21.6665C10.0427 21.6565 9.97836 21.6508 9.91382 21.6495C9.86991 21.6495 9.82599 21.658 9.78207 21.658C9.71642 21.6576 9.65106 21.6667 9.58799 21.6849C9.52707 21.6934 9.46616 21.7019 9.40382 21.7189C9.34116 21.7357 9.27965 21.7565 9.21966 21.7812C9.15874 21.8067 9.10632 21.8337 9.04399 21.8606C8.99157 21.8861 8.93916 21.9215 8.87682 21.9484C6.83116 23.2829 8.05232 26.4081 9.44774 27.3133C8.92074 27.4097 8.38524 27.523 8.23649 27.6377L8.21807 27.6547C8.59632 27.8828 8.99157 28.0769 9.40382 28.2441C9.96624 28.4282 10.5627 28.594 10.8262 28.6648V28.6733C11.5537 28.8227 12.2976 28.8761 13.039 28.832C16.9292 28.56 20.1167 25.6006 20.6961 21.7019L20.7485 21.93C20.7754 22.0887 20.8094 22.2558 20.8278 22.4216V22.4301C20.8448 22.5094 20.8533 22.5887 20.8632 22.6596V22.6936C20.8717 22.7729 20.8802 22.8522 20.8802 22.9231C20.8887 23.0194 20.8972 23.1157 20.8972 23.2121V23.3537C20.8972 23.3962 20.9072 23.4487 20.9072 23.4926C20.9072 23.5464 20.8972 23.5988 20.8972 23.6512V23.7745C20.8972 23.8354 20.8887 23.8878 20.8887 23.9502C20.8887 23.9856 20.8887 24.021 20.8802 24.0635C20.8802 24.1258 20.8717 24.1867 20.8717 24.2576C20.8632 24.2831 20.8632 24.31 20.8632 24.3355L20.8349 24.5381C20.8349 24.565 20.8349 24.5905 20.8278 24.6174C20.8179 24.7052 20.8009 24.7846 20.7924 24.8724V24.8894L20.74 25.1359V25.1614L20.6876 25.398C20.6876 25.4079 20.6777 25.4263 20.6777 25.4334C20.6615 25.5138 20.6412 25.5932 20.6167 25.6714V25.6969C20.5898 25.7847 20.5643 25.8641 20.5459 25.9434C20.5374 25.9519 20.5374 25.9604 20.5374 25.9604L20.4581 26.2239C20.4241 26.3117 20.3972 26.3911 20.3617 26.4789C20.3263 26.5667 20.3008 26.6546 20.2654 26.7339C20.23 26.8217 20.1946 26.8997 20.1606 26.9889H20.1507C20.1167 27.0668 20.0798 27.1547 20.0373 27.234C20.0299 27.255 20.0209 27.2753 20.0104 27.2949C20.0019 27.3034 20.0019 27.3133 19.9934 27.3218C19.4127 28.4844 18.5675 29.4946 17.5256 30.2713C17.4547 30.3152 17.3853 30.3691 17.3145 30.4215C17.2975 30.4385 17.272 30.447 17.2536 30.464C17.1908 30.5104 17.1265 30.5548 17.0609 30.5972L17.0864 30.6496H17.0963L17.4647 30.5972H17.4732C17.7012 30.5617 17.9293 30.5178 18.1574 30.4739C18.2197 30.4654 18.2892 30.447 18.3515 30.43L18.4747 30.4031C18.5357 30.3946 18.5966 30.3776 18.6589 30.3691C18.7113 30.3507 18.7637 30.3407 18.8162 30.3252C19.6945 30.1127 20.5459 29.8237 21.3633 29.4822C19.9521 31.4044 18.0752 32.9362 15.9092 33.9334C16.9207 33.8626 17.9293 33.6968 18.904 33.4149C22.4318 32.3777 25.4114 29.9969 27.2014 26.7849C26.8399 28.8182 26.0334 30.7465 24.8398 32.4317C25.6908 31.8704 26.4771 31.2167 27.1844 30.4824C29.1498 28.4305 30.4401 25.8262 30.8819 23.0194C31.1794 24.4077 31.2672 25.8386 31.1369 27.251C37.4751 18.4096 31.6625 9.24233 29.2301 6.82833C29.2216 6.80992 29.2131 6.80142 29.2131 6.78442C29.2046 6.79292 29.2046 6.79292 29.2046 6.80142C29.2046 6.79292 29.2046 6.79292 29.1947 6.78442C29.1947 6.88925 29.1862 6.99408 29.1777 7.10033C29.1533 7.29701 29.124 7.49304 29.0898 7.68825C29.0473 7.88092 28.9935 8.075 28.9411 8.26908C28.8787 8.45325 28.8093 8.64592 28.7286 8.83008C28.6483 9.01197 28.5609 9.19061 28.4665 9.36558C28.2705 9.70979 28.0443 10.0359 27.7907 10.3402C27.659 10.4975 27.5187 10.6377 27.3771 10.7794C27.2943 10.8551 27.2092 10.9283 27.1221 10.999L26.9209 11.1747C26.7642 11.2984 26.6 11.4124 26.4293 11.5161C26.2615 11.6242 26.0885 11.7239 25.9108 11.815C25.7267 11.9028 25.5425 11.9822 25.3583 12.0615C24.9832 12.2042 24.5951 12.31 24.1995 12.3774C23.9969 12.4128 23.7957 12.4298 23.6017 12.4482C23.4616 12.4582 23.3213 12.4638 23.1809 12.4652C22.9812 12.4625 22.7817 12.4507 22.5831 12.4298C22.3825 12.4141 22.1832 12.3847 21.9867 12.342C21.7875 12.3059 21.5911 12.2562 21.3987 12.1932H21.3888C21.5829 12.1748 21.7756 12.1578 21.9697 12.1224C22.365 12.0539 22.753 11.9481 23.1285 11.8065C23.3212 11.7357 23.5053 11.6478 23.681 11.56C23.8652 11.4722 24.0323 11.3758 24.208 11.271C24.3752 11.1577 24.5409 11.0429 24.6996 10.9197C24.8582 10.7964 25.007 10.6647 25.1472 10.5244C25.296 10.3927 25.4277 10.2439 25.5595 10.0937C25.6912 9.9365 25.8145 9.77783 25.9278 9.62058C25.9462 9.59367 25.9647 9.55825 25.9817 9.53275C26.0695 9.39108 26.1573 9.25083 26.2367 9.11058C26.4302 8.76112 26.5887 8.39336 26.7098 8.01267C26.7722 7.8285 26.8161 7.63583 26.86 7.44175C26.8954 7.24058 26.9308 7.04792 26.9478 6.85383C26.9648 6.65267 26.9832 6.45008 26.9832 6.25742C26.9832 6.11575 26.9733 5.9755 26.9648 5.83525C26.9473 5.63859 26.9237 5.44252 26.894 5.24733C26.8598 5.04941 26.8164 4.85322 26.7637 4.65942C26.7013 4.47525 26.6404 4.28117 26.5696 4.097C26.4987 3.91283 26.4123 3.72867 26.3245 3.553C26.2267 3.37733 26.1304 3.20167 26.0256 3.0345C25.9134 2.87038 25.7963 2.70975 25.6742 2.55283C25.5425 2.40267 25.4107 2.2525 25.2705 2.10375C25.1966 2.02838 25.1205 1.95515 25.0424 1.88417C24.6457 1.57675 24.2349 1.28775 23.8212 1.02425C23.7645 0.991477 23.7058 0.962146 23.6456 0.936415C23.3851 0.776946 23.1045 0.653068 22.8112 0.568082V0.566665Z" />
</g>
<defs>
<clipPath id="clip0">
<rect width="34" height="34" fill="white"/>
</clipPath>
</defs>
</svg>

<svg xmlns="http://www.w3.org/2000/svg" viewBox="0 0 34 34">
  <path d="M20.019.067a2.14 2.14 0 00-.684.123c.447.297.694.694.816 1.142.01.06.027.105.035.165.01.053.017.106.018.16.034.771-.202.869-.368 1.325a1.876 1.876 0 00.122 1.728c.028.069.063.134.105.194-.333-2.22 1.52-2.554 1.861-3.248.027-.606-.473-1.01-.868-1.29a1.94 1.94 0 00-1.037-.298V.067zm2.792.5c-.034.202-.008.15-.017.255-.008.07-.008.158-.017.228-.018.07-.035.141-.062.21-.017.072-.043.143-.071.212l-.095.201c-.028.035-.044.07-.07.106l-.053.078c-.042.06-.086.119-.132.176-.052.054-.096.115-.159.159V2.2c-.052.044-.104.096-.167.142-.184.14-.394.245-.588.377-.06.042-.123.079-.175.131-.06.042-.116.09-.167.14-.061.053-.105.105-.158.168-.044.052-.096.113-.131.175a2.26 2.26 0 00-.124.185c-.035.07-.06.131-.096.2-.027.072-.052.132-.07.203a2.785 2.785 0 00-.062.22c-.008.035-.008.08-.017.113-.01.036-.01.071-.018.107 0 .07-.009.148-.009.22 0 .051 0 .104.009.156 0 .071.008.142.027.22.008.07.025.142.042.212.028.07.046.14.071.21.018.043.044.088.062.123l-2.02-.782a22 22 0 00-1.018-.263l-.553-.132a16.395 16.395 0 00-1.598-.237c-.018 0-.027-.008-.044-.008a15.7 15.7 0 00-2.723-.035 16.78 16.78 0 00-2.792.439l-.395.105c-.13.052-.255.113-.377.167l-.29.131c-.017.009-.034.009-.043.018-.09.043-.167.079-.246.123-.114.05-.226.106-.335.167-.06.025-.122.06-.175.088a.792.792 0 01-.078.042c-.08.046-.159.09-.23.133-.072.04-.142.084-.21.132-.062.043-.123.078-.175.122-.009.01-.019.01-.027.018-.053.036-.113.08-.167.124l-.017.017-.132.104c-.017.01-.035.027-.052.036-.044.035-.088.08-.132.113-.009.019-.027.029-.036.036-.052.053-.104.097-.157.15-.01 0-.01.008-.018.017a2.469 2.469 0 00-.158.15c-.01.008-.01.017-.018.017-.046.045-.09.092-.132.142-.017.017-.042.034-.06.05a1.947 1.947 0 01-.15.16c-.01.016-.026.026-.035.042-.07.07-.132.141-.202.212l-.026.026c-.142.15-.29.299-.449.43a4.783 4.783 0 01-.492.387 5.35 5.35 0 01-1.079.597c-.184.079-.378.15-.57.21-.37.08-.748.229-1.072.256-.07 0-.149.017-.22.025l-.22.053-.21.079c-.071.027-.14.062-.21.096-.062.044-.132.08-.194.124a1.431 1.431 0 00-.176.15c-.06.042-.123.105-.175.157-.053.06-.105.113-.149.176-.044.07-.096.131-.132.202a1.552 1.552 0 00-.123.201c-.035.08-.07.15-.096.229-.027.07-.053.15-.08.228-.017.07-.035.141-.042.212 0 .007-.01.017-.01.026-.017.079-.017.184-.027.236-.009.063-.017.114-.017.176a.93.93 0 00.105.439v.008c.027.053.062.107.098.16.034.052.07.104.113.156.044.044.096.098.15.142.051.051.107.098.166.14.21.184.263.245.535.386.044.027.088.044.142.07.008 0 .017.009.025.009 0 .018 0 .027.009.044.02.145.059.287.113.422.029.053.046.105.071.157.01.019.019.036.028.044.034.071.07.132.104.194l.132.184c.044.053.097.114.15.168.052.052.105.096.167.148 0 0 .008.009.017.009.052.044.105.088.159.123.06.043.125.08.192.114.061.035.132.07.201.097.057.026.116.046.176.061.01.009.019.009.036.017.035.01.079.019.113.027-.026.475-.034.92.037 1.08.078.175.464-.36.85-.975-.051.606-.087 1.317 0 1.528.097.22.623-.466 1.08-1.22 6.227-1.44 11.908 2.861 12.504 8.939-.113-.95-1.282-1.475-1.817-1.344-.264.65-.712 1.484-1.431 2.002a5.636 5.636 0 00-.088-1.756 5.68 5.68 0 01-1.09 2.212c-.833.061-1.667-.342-2.106-.949-.036-.025-.044-.078-.07-.113-.026-.061-.053-.123-.072-.184a.733.733 0 01-.052-.184c-.009-.063-.009-.124-.009-.195v-.131c.01-.063.026-.124.044-.184.019-.061.036-.122.063-.185.034-.06.06-.123.104-.184.15-.422.15-.765-.123-.966a1.006 1.006 0 00-.167-.088c-.034-.008-.078-.025-.113-.035l-.071-.026a1.211 1.211 0 00-.184-.044.668.668 0 00-.184-.027 1.43 1.43 0 00-.193-.017c-.044 0-.088.009-.132.009a.685.685 0 00-.194.027 1.445 1.445 0 00-.368.096c-.061.026-.114.053-.176.08-.052.025-.105.06-.167.087-2.046 1.335-.825 4.46.57 5.365-.526.097-1.062.21-1.21.325l-.019.017c.378.228.774.422 1.186.59.562.183 1.159.349 1.422.42v.008c.728.15 1.472.203 2.213.159 3.89-.272 7.078-3.231 7.657-7.13l.052.228c.027.159.061.326.08.492v.008c.017.08.025.159.035.23v.034c.009.079.017.158.017.23.009.095.017.192.017.288v.142c0 .042.01.095.01.139 0 .053-.01.106-.01.158v.123c0 .061-.008.114-.008.176 0 .036 0 .071-.009.114 0 .062-.008.123-.008.194-.009.025-.009.052-.009.078l-.028.202c0 .027 0 .052-.007.08-.01.087-.027.167-.036.254v.017l-.052.247v.025l-.052.237c0 .01-.01.028-.01.035-.017.08-.037.16-.061.238v.026c-.027.088-.053.167-.071.246-.009.009-.009.017-.009.017l-.079.264c-.034.088-.06.167-.096.255-.036.088-.061.176-.097.255-.035.088-.07.166-.104.255h-.01c-.034.078-.071.166-.114.245a.435.435 0 01-.027.06c-.008.01-.008.02-.017.028a8.31 8.31 0 01-2.467 2.95c-.071.043-.14.097-.212.15-.017.017-.042.025-.06.042-.063.046-.128.09-.193.133l.025.053h.01l.369-.053h.008c.228-.035.456-.08.684-.123.063-.009.132-.027.195-.044l.123-.027c.06-.008.122-.025.184-.034.052-.018.105-.028.157-.044.879-.212 1.73-.501 2.547-.843a14.061 14.061 0 01-5.454 4.451 14.41 14.41 0 002.995-.518 14.029 14.029 0 008.297-6.63 14.014 14.014 0 01-2.361 5.647 13.822 13.822 0 002.344-1.95 13.917 13.917 0 003.698-7.463c.297 1.389.385 2.82.255 4.232 6.338-8.841.526-18.009-1.907-20.423-.008-.018-.017-.027-.017-.044-.008.009-.008.009-.008.017 0-.008 0-.008-.01-.017 0 .105-.009.21-.017.316-.025.197-.054.393-.088.588-.043.193-.096.387-.149.581a7.011 7.011 0 01-.212.561c-.08.182-.168.36-.262.536-.197.344-.423.67-.676.974-.132.158-.272.298-.414.44a5.725 5.725 0 01-.255.219l-.201.176c-.157.123-.321.237-.492.341-.167.108-.34.208-.518.299-.184.088-.369.167-.553.247a6.176 6.176 0 01-1.159.315c-.202.036-.403.053-.597.071-.14.01-.28.016-.421.017a6.56 6.56 0 01-.598-.035 4.44 4.44 0 01-.596-.088 4.425 4.425 0 01-.588-.149h-.01c.194-.018.387-.035.58-.07a6.364 6.364 0 001.16-.316c.192-.071.376-.16.552-.247.184-.088.351-.184.527-.289.167-.113.333-.228.492-.351.158-.124.307-.255.447-.396.149-.131.28-.28.413-.43.131-.157.255-.316.368-.473.018-.027.037-.063.054-.088.088-.142.175-.282.255-.422a6.057 6.057 0 00.623-1.67c.035-.2.07-.393.088-.587.017-.201.035-.404.035-.597 0-.141-.01-.281-.018-.422a9.514 9.514 0 00-.071-.588 6.38 6.38 0 00-.13-.588c-.063-.184-.124-.378-.194-.562a6.282 6.282 0 00-.245-.544c-.098-.176-.195-.351-.3-.518a9.682 9.682 0 00-.35-.482c-.133-.15-.264-.3-.405-.45a5.501 5.501 0 00-.228-.219 16.28 16.28 0 00-1.22-.86 1.636 1.636 0 00-.176-.088 3.422 3.422 0 00-.835-.368V.567z"/>
</svg>
